X:17
T:Gkpolskan
S:efter Bengt Bixo, Sv.L. Jmtland nr.51
M:3/4
L:1/8
K:G
({ga}vg)f/e/ d3 (c|B>G c>A dd-|d>(c B>)G c>A|"flag."[C2g2] [D3d3] (c|\
B>)G c>A d>D|"flag."[C2g2] [D3d3] (c|B>)d c>d B>c|(3A(BA) G3z::\
vB>d (3c(ec) B>G|B>d (3^c(ec) d>f|g>a (3b(gb) (3a(gf)|(3d(fa) g>d BG|\
B>d (3c(ec) B>G|B>d (3^c(ec) d>f|g>a (3b(gb) (3a(gf)|(3d(fa) g3z:|
T:Andrastmma
{[G,D]}vBd/c/ B3 (A|G>)D E>C DD-|D>E G>D E>C|"flag."[D2d2] G,3 (E|\
G>)D E>C D>G,|"flag."[D2d2] G,3 (E|G>B A>B G>A|(3F(DC) [B,3D3]z::\
G>B (3A(cA) G>B,|D>F (3E(GE) F>A|B>f (3g(eg) (3f(ed)|(3B(dc) B>G DB,|\
 G>B (3A(cA) G>B,|D>F (3E(GE) F>A|B>f (3g(eg) (3f(ed)|(3B(dc) [D3B3]z:|
